X: 27201
T: Miss Noble
R: jig
M: 6/8
K: Bminor
f2B c2B|A2F ABc|B2B Bcd|c2A cde|
fga bfe|d2A d2e|fga gab|agf ede|
f2f B2B|A2A F2F|fed cAF|B4 B4||
f2f fga|g2f e2c|def A2F|B2c d2e|
f3 d2f|c2f B2f|A2f e2d|c2B ABc|
B2F A2E|F2E DEF|A2f edc|B4 B4||

